svgs/thin/user-injured.svg

<svg xmlns="http://www.w3.org/2000/svg" viewBox="0 0 448 512"><!-- Font Awesome Pro 6.0.0-alpha2 by @fontawesome - https://fontawesome.com License - https://fontawesome.com/license (Commercial License) --><path d="M224 256C294.695 256 352 198.691 352 128S294.695 0 224 0C153.312 0 96 57.309 96 128S153.312 256 224 256ZM328.291 88H218.422L291.543 39.252C307.928 51.756 320.769 68.465 328.291 88ZM224 16C243.195 16 261.004 21.301 276.811 29.846L189.578 88H119.709C135.879 46.004 176.375 16 224 16ZM114.732 104H333.268C334.971 111.75 336 119.744 336 128C336 189.758 285.758 240 224 240S112 189.758 112 128C112 119.744 113.029 111.75 114.732 104ZM274.666 304H173.334C77.419 304 -0.312 381.913 0.001 477.908C0.062 496.819 15.754 512 34.666 512H294.05C322.508 512 347.903 491.597 351.526 463.37C355.909 429.221 329.303 400 296 400H216.437L166.848 320.656C169.047 320.564 171.113 320 173.334 320H274.666C361.298 320 431.802 390.38 431.999 476.968C432.023 487.413 423.779 496 413.334 496H376C371.582 496 368 499.582 368 504C368 508.418 371.582 512 376 512H413.334C432.246 512 447.937 496.819 447.999 477.908C448.311 381.913 370.59 304 274.666 304ZM80 496H34.666C24.373 496 16 487.625 16 477.332C16 425.639 41.391 380.084 80 351.387V496ZM296 416C318.092 416 336 433.908 336 456S318.092 496 296 496H276.437L226.437 416H296ZM257.562 496H96V341.16C112.195 331.924 129.978 325.441 149.094 322.451L257.562 496Z"/></svg>

<svg xmlns="http://www.w3.org/2000/svg" viewBox="0 0 448 512"><!--! Font Awesome Pro 6.3.0 by @fontawesome - https://fontawesome.com License - https://fontawesome.com/license (Commercial License) Copyright 2023 Fonticons, Inc. --><path d="M224 256c70.7 0 128-57.31 128-128s-57.3-128-128-128C153.3 0 96 57.31 96 128S153.3 256 224 256zM328.3 88H218.4l73.12-48.75C307.9 51.76 320.8 68.46 328.3 88zM224 16c19.2 0 37 5.301 52.81 13.85L189.6 88H119.7C135.9 46 176.4 16 224 16zM114.7 104h218.5C334.1 111.8 336 119.7 336 128c0 61.76-50.24 112-112 112S112 189.8 112 128C112 119.7 113 111.8 114.7 104zM274.7 304H173.3c-95.91 0-173.6 77.91-173.3 173.9C.0625 496.8 15.75 512 34.66 512h259.4c28.46 0 53.85-20.4 57.48-48.63C355.9 429.2 329.3 400 296 400H216.4l-49.59-79.34C169 320.6 171.1 320 173.3 320h101.3c86.63 0 157.1 70.38 157.3 156.1C432 487.4 423.8 496 413.3 496H376c-4.418 0-8 3.582-8 8c0 4.418 3.582 8 8 8h37.34c18.91 0 34.6-15.18 34.66-34.09C448.3 381.9 370.6 304 274.7 304zM80 496H34.67c-10.29 0-18.67-8.375-18.67-18.67c0-51.69 25.39-97.25 64-125.9V496zM296 416c22.09 0 40 17.91 40 40s-17.91 40-40 40h-19.56l-50-80H296zM257.6 496H96v-154.8c16.2-9.236 33.98-15.72 53.09-18.71L257.6 496z"/></svg>
